!!!!SEGMENT: Wil3027-Dessus_nostre_treille_de_may.krn
!!!id: Wil3027
!!!AGN: Chanson
!!!SCT: Bernstein (1984)
!!!voices: 3
!!!COM: Adrian Willaert
!!!OTL: Dessus nostre treille de may
**kern	**kern	**kern
*part3	*part2	*part1
*staff3	*staff2	*staff1
*I"Bassus	*I"Tenor	*I"Superius
*I'B	*I'T	*I'S
*clefGv2	*clefGv2	*clefG2
*k[b-]	*k[b-]	*k[b-]
*F:	*F:	*F:
*M3/1	*M3/1	*M3/1
*met(C|3)	*met(C|3)	*met(C|3)
=1	=1	=1
1r	1r	1r
1r	1r	1r
1G	1g	1g
=2	=2	=2
0B-y	0f	0dd
1c	1e	1g
=3	=3	=3
1B-y	1d	0dd
1B-y	0f	.
1F	.	1cc
=4	=4	=4
1A	1c	1cc
0G	1d	0b-y
.	1e	.
=5	=5	=5
1F	1.f	1a
0c	.	0g
.	4e	.
.	4d	.
.	1e	.
=6	=6	=6
1r	1f	0f
1.d	1r	.
.	[1d	1r
2B-y	.	.
=7	=7	=7
1B-y	2d]	1.g
.	2d	.
1c	1e	.
.	.	2g
1F	1f	1a
=8	=8	=8
1G	1d	1b-y
1c	1e	1g
1A	1f	1cc
=9	=9	=9
1G	1.g	1b-y
0d	.	1a
.	2f#i	.
.	2f#i	1a
.	4e	.
.	4f#i	.
=	=	=
*M2/1	*M2/1	*M2/1
*met(C|)	*met(C|)	*met(C|)
2r	1g	2g
2.G	.	2.b-y
.	1r	.
4G	.	4b-y
2A	.	2a
=10	=10	=10
2B-y	0r	2f
2G	.	2b-y
2c	.	2a
2B-y	.	2g
=11	=11	=11
2A	1r	2g
2A	.	2f#i
1G	2.d	2g
.	.	[2b-y
.	4d	.
=12	=12	=12
2r	2e	4b-]
.	.	4b-y
2.D	2f	2a
.	2d	2f
4D	.	.
2E	[2c	2g
=13	=13	=13
2F	2c]	4a
.	.	4g
2D	2d	4f
.	.	4e
2G	2B-y	2d
2F	[2c	[2a
=14	=14	=14
2E	4c]	4a]
.	4B-y	4g
2E	4A	1g
.	4G	.
1D	1A	.
.	.	2f#i
=15	=15	=15
1r	1G	0g
2.G	2r	.
.	[2d	.
4A	.	.
=16	=16	=16
2B-y	2d]	2r
2c	2e	2g
[1B-y	2f	2dd
.	2g	2dd
=17	=17	=17
2B-]	2.f	2dd
2A	.	1cc
.	4g	.
2F	2a	.
[2c	[2g	[2ee-X
=18	=18	=18
4c]	4g]	4ee-]
4d	4f	4dd
2B-y	4e	1dd
.	4d	.
1A	1e	.
.	.	2cc#i
=19	=19	=19
2r	1d	2dd
1G	.	1b-y
.	2r	.
2E	2G	4a
.	.	4g
=20	=20	=20
2F	2d	2a
2G	2d	2b-y
2.F	2d	1a
.	[2c	.
4G	.	.
=21	=21	=21
2A	2c]	0r
2.G	2.e-X	.
4F	4d	.
4E	[2d	.
4D	.	.
=22	=22	=22
1E	2d]	1r
.	2c#i	.
1D	2d	2r
.	[2f	[2a
=23	=23	=23
1r	2f]	2a]
.	2d	2b-y
2r	2e	2cc
2D	2f	2dd
=24	=24	=24
2A	2e	2cc
2A	4c	4a
.	4d	4b-y
2A	4e	4cc
.	4f	4a
2G	[2g	[2b-y
=25	=25	=25
1B-y	4g]	4b-]
.	4f	4cc
.	4e	1dd
.	4d	.
2A	1e	.
2A	.	2cc#i
=26	=26	=26
2B-y	2r	1dd
2B-y	2f	.
2c	2e	2g
[2B-y	2d	2dd
=27	=27	=27
2B-]	2f	2dd
2B-y	2g	2dd
2F	2a	2cc
2r	2g	2b-y
=28	=28	=28
2r	2f	2a
2B-y	4f	2dd
.	4d	.
2A	4e	4cc
.	4f	4cc
2G	[2g	4b-y
.	.	4b-y
=29	=29	=29
2c	4g]	1a
.	8f#iL	.
.	8eJ	.
2d	2f#i	.
1e-X	1g	2g
.	.	2b-y
=30	=30	=30
2d	2G	2b-y
2G	2d	2b-y
2B-y	2d	2.f
2B-y	2d	.
.	.	4g
=31	=31	=31
2F	2c	2a
2G	2B-y	2d
2.D	2A	2.f
.	2d	.
4E	.	4g
=32	=32	=32
2F	4c	2a
.	4c	.
2G	4B-y	1g
.	4B-y	.
1D	1A	.
.	.	2f#i
=33	=33	=33
2r	2G	2g
2G	1g	2b-y
1d	.	2a
.	2f	2a
=34	=34	=34
2G	2b-y	2g
1d	1a	2.f
.	.	4g
2d	[2f	4a
.	.	4b-y
=35	=35	=35
1c	2f]	2a
.	2e	2g
2B-y	2f	2dd
2A	2f	[2cc
=36	=36	=36
1G	4B-y	4cc]
.	4c	4b-y
.	4d	1b-y
.	4B-y	.
1F	2c	.
.	2d	2a
=37	=37	=37
2r	2G	4b-y
.	.	4a
2.G	1d	4g
.	.	4f
.	.	1e
4G	.	.
2A	2c#i	.
=38	=38	=38
1B-y	1d	2r
.	.	2.d
2G	1r	.
.	.	4d
2c	.	2e
=39	=39	=39
2A	0r	2f
2.B-y	.	2d
.	.	2g
4d	.	.
[2d	.	2f
=40	=40	=40
2d]	1r	2e
2c#i	.	2e
1d	2r	2d
.	[2G	[2b-y
=41	=41	=41
2r	4G]	4b-]
.	4G	4b-y
2.D	2A	2a
.	2B-y	2f
4D	.	.
2E	2G	2g
=42	=42	=42
2F	2c	4a
.	.	4g
2D	2d	4f
.	.	4e
2G	2B-y	2d
2F	[2c	[2a
=43	=43	=43
2E	4c]	4a]
.	4B-y	4g
2E	4A	1g
.	4G	.
1D	1A	.
.	.	2f#i
=44	=44	=44
1r	1G	4g
.	.	4f
.	.	4e
.	.	4d
2C	2r	2e
2G	2G	2d
=45	=45	=45
2G	2d	2r
2G	2d	2d
2.F	2d	2a
.	[2c	2a
4G	.	.
=46	=46	=46
2A	2c]	2a
2c	2e-X	1g
2B-y	1d	.
2G	.	[2b-y
=47	=47	=47
2A	2r	4b-]
.	.	4a
2c	2A	2.a
1B-y	2d	.
.	.	8gL
.	.	8fJ
.	2d	2g
=48	=48	=48
2.F	2d	1a
.	1c	.
4G	.	.
2A	.	1r
[2G	[2e-X	.
=49	=49	=49
4G]	4e-]	0r
4F	4d	.
4E	2.d	.
4D	.	.
1E	.	.
.	8c#iL	.
.	8BnXiJ	.
.	2c#i	.
=50	=50	=50
2D	2d	2r
2.d	1f	2a
.	.	2dd
4c	.	.
4B-y	2f	2dd
4A	.	.
=51	=51	=51
2B-y	2g	2dd
2A	2a	1cc
2F	2a	.
2c	[2g	[2ee-X
=52	=52	=52
1B-y	4g]	4ee-]
.	4f	4dd
.	4e	1dd
.	4d	.
1A	1e	.
.	.	2cc#i
=53	=53	=53
1r	1d	0dd
2D	2r	.
2G	2G	.
=54	=54	=54
2G	2d	1r
2G	2d	.
2F	2d	2r
2E	2c	2g
=55	=55	=55
1D	2B-y	2dd
.	2A	2dd
2r	2f	2dd
2A	4f	2cc
.	4e	.
=56	=56	=56
4G	4e	2b-y
4G	4d	.
4F	2.d	2a
4F	.	.
1E	.	2r
.	8c#iL	.
.	8BnXiJ	.
.	2c#i	2g
=57	=57	=57
1D	2d	2dd
.	2.f	2dd
1r	.	2dd
.	4g	.
.	2a	2cc
=58	=58	=58
2r	2g	2b-y
2.d	2.f	1a
4c	4e	.
2B-y	4f	2dd
.	4d	.
=59	=59	=59
2A	4e	4cc
.	4f	4cc
2G	2.g	4b-y
.	.	4b-y
1d	.	1a
.	8f#iL	.
.	8eJ	.
.	2f#i	.
=	=	=
*M3/1	*M3/1	*M3/1
*met(3)	*met(3)	*met(3)
1G	1g	1.g
2G	2g	.
1B-y	1f	2r
.	.	2r
2c	2e	2g
=60	=60	=60
2B-y	2d	1dd
2d	2f	.
2c	2e	2g
1B-y	2d	1dd
.	1f	.
2F	.	2cc
=61	=61	=61
2A	2c	2cc
1G	2d	1.b-y
.	2e	.
2F	2.f	.
1c	.	2a
.	8eL	.
.	8dJ	.
.	2e	2g
=62	=62	=62
2r	2f	1f
2.d	2r	.
.	2.d	2r
4B-y	.	.
2B-y	.	2.g
.	4d	.
2c	2e	.
.	.	4g
2F	2f	2a
=63	=63	=63
2G	2d	2b-y
2c	2e	2g
2A	2f	2cc
2G	2.g	2b-y
1d	.	2a
.	8f#iL	.
.	8eJ	.
.	2f#i	2a
=64	=64	=64
2r	1.g	1g
2.e-X	.	.
.	.	2r
4e-i	.	.
2d	2.G	2.b-y
2B-y	.	.
.	4G	4b-y
2c	2A	2a
=65	=65	=65
2d	2B-y	2f
2B-y	2G	2b-y
2F	2c	2a
2G	2B-y	2g
1D	2A	2g
.	2A	2f#i
=66	=66	=66
00Gl	00Gl	00gl
==	==	==
*-	*-	*-
!!!system-decoration: [*]
!!!RDF**kern: i = editorial accidental
!!!RDF**kern: l = terminal long
!!!ENC: Benjamin Ory
!!!END: 2023/12/6
!!!EED: Benjamin Ory 2023/12/6
!!!EEV: 2023/12/6
!!!YEC: Copyright 2023 Benjamin Ory, All Rights Reserved
!!!ONB: Translated from MusicXML on 2023/12/6
